_inc/images/systems/logos/gbah.svg

<svg viewBox="0 0 264 87" xmlns="http://www.w3.org/2000/svg">
    <path style="fill:#fff" d="M573.944.968H600l-36.734 57.146-5.959 44.582H533.76l6.901-50.87L517.114.968h25.43l12.563 28.89zM299.546 62.507h31.074l3.141-22.605h-30.764l2.203-16.329h35.781L344.442.968h-59.34l-14.129 101.728h59.022l3.141-22.614h-35.79zM118.703 52.454l7.85-21.033 2.514 21.033h-10.361Zm-8.476 20.094h21.347l3.772 30.139h38.614l17.898-55.257 8.792 55.257h20.409l22.605-58.395 3.768 58.395h22.602L263.755.965h-27.001L215.715 54.65 207.551.965h-24.174l-27.629 83.513L145.387.965h-30.139L81.651 85.417l4.396-32.963h-40.82L42.4 72.545h17.898l-1.258 6.907c-3.138 1.882-10.358 2.199-13.185 2.199-2.824 0-23.86-1.882-22.919-24.49.935-22.602 31.074-43.639 66.865-32.022l3.457-21.664C69.395-4.686 6.725-.118.322 55.905c-3.765 32.967 26.377 48.665 46.468 48.354 11.616.628 24.805-3.768 29.512-6.282l-1.569 4.71h23.863l11.616-30.139Z" transform="scale(.44 .44077)"/>
    <path d="M491.682.029c-16.326-.63-39.875 8.79-47.723 46.779-7.848 37.987 13.185 53.372 32.652 55.885 19.467 2.511 46.782-9.733 51.803-46.151C533.444 20.121 515.536.971 491.682.029Zm-2.507 21.664c6.593 0 20.719 4.396 17.264 30.764-3.451 26.373-19.777 29.514-25.742 28.887-5.969-.631-18.212-4.71-14.758-28.887 3.461-24.171 16.33-31.081 23.242-30.764Z" style="fill:#fff" transform="scale(.44 .44077)"/>
    <path d="M392.467 39.902h13.188c9.731 0 11.617-6.279 11.927-8.789.314-2.513-2.51-7.537-7.531-7.537h-15.384l-2.191 16.326Zm-5.651 40.186h17.898c9.73 0 11.927-7.534 12.241-10.047.314-2.51-2.511-7.534-7.534-7.534h-20.092l-2.51 17.581Zm-26.365 22.605L374.581.971h43.324c10.364 0 25.432 11.933 23.55 27.942-1.883 16.013-6.907 16.957-10.362 19.467 5.341 4.707 10.675 12.241 8.479 26.371-2.2 14.13-13.816 27.942-34.221 27.942h-44.897Z" style="fill:#fff" transform="scale(.44 .44077)"/>
    <path d="M123.79 113.833h-13.321l-31.395 52.859h37.378v-11.719h-15.234l15.234-27.324 22.083 39.106h17.023v-.124h26.582c23.006 0 34.541-8.882 34.541-26.458 0-3.023-.371-5.859-1.174-8.511l21.217 34.972h10.177l30.531-52.735h-16.16l-19.063 34.535-20.106-34.538h-17.392l4.81 7.893c-5.609-5.304-13.692-7.893-24.237-7.893h-34.973v43.85l-26.521-43.913Zm41.571 11.963h20.049c10.419 0 15.723 4.565 15.723 13.692 0 5.492-1.662 9.502-4.809 11.596-3.024 2.16-8.759 3.207-16.776 3.207h-14.124v-28.495h-.063Zm134.583-11.963H286.56l-31.274 52.856h15.792v-.124h21.585v-11.779h-15.107l14.987-27.198 22.08 39.101h17.207v-.124h8.759v-31.886l39.906 31.886h10.361v-52.732H377.04v31.515l-40.277-31.515h-10.301v43.852zm98.808 2.957c-2.16 1.916-3.268 5.367-3.268 10.304v26.15c0 5.057 1.108 8.511 3.205 10.424 2.036 1.913 5.735 2.9 11.166 2.9h31.023c5.368 0 9.251-.987 11.288-2.9 2.033-1.91 3.207-5.367 3.207-10.424v-7.341l-15.234-.244v8.14h-29.484v-27.692h29.484v7.217h15.234v-6.23c0-5.181-1.171-8.636-3.207-10.304-2.037-2.034-5.612-3.02-11.288-3.02h-31.023c-5.367.063-9.07.989-11.103 3.02Zm76.912 16.595v-7.589h41.137v-11.963H460.43v52.732h57.049v-12.211h-41.815v-9.374h24.116v-11.595z" style="fill-opacity:1;fill:#fff" transform="scale(.44 .44077)"/>
    <path d="M83.597 86.816h-2.464v-2.729h-1.848v2.729h-2.464v-7.714h2.464v2.728h1.848v-2.728h2.464v7.714Zm3.353-1.222-.286 1.222h-2.601l1.998-7.714h3.806l1.997 7.714h-2.6l-.282-1.222H86.95Zm1.082-4.121h-.136l-.506 2.16h1.135l-.493-2.16Zm9.412 3.134.185 2.071c-.516.216-1.164.322-1.945.322-.78 0-1.406-.082-1.879-.246-.472-.165-.845-.423-1.117-.776a3.215 3.215 0 0 1-.568-1.248c-.106-.479-.158-1.068-.158-1.767 0-.699.052-1.288.158-1.767.109-.482.298-.901.568-1.256.525-.683 1.49-1.023 2.895-1.023.314 0 .682.031 1.104.092.423.062.737.138.942.229l-.37 1.887a7.06 7.06 0 0 0-1.465-.172c-.443 0-.751.042-.924.124-.173.082-.26.246-.26.494v3.234c.32.065.645.097.973.097.698 0 1.319-.098 1.861-.295Zm3.56-1.15h-.049v3.359h-2.464v-7.714h2.464v3.147h.049c.017-.247.058-.444.123-.59l1.21-2.557h2.657l-1.848 3.791 1.91 3.923h-2.658l-1.271-2.764a1.845 1.845 0 0 1-.123-.595Zm4.485 3.221.343-2.036c.757.191 1.437.286 2.041.286.605 0 1.092-.025 1.461-.074v-.617l-1.109-.102c-1.003-.088-1.691-.327-2.063-.718-.376-.391-.563-.97-.563-1.736 0-1.053.228-1.777.686-2.174.455-.393 1.228-.59 2.319-.59 1.094 0 2.08.102 2.957.308l-.308 1.975c-.763-.123-1.375-.185-1.835-.185-.461 0-.851.021-1.171.062v.604l.889.088c1.077.105 1.82.362 2.231.771.411.405.616.971.616 1.697 0 .517-.07.955-.211 1.313-.141.359-.307.631-.497.816-.194.185-.468.325-.823.423-.352.1-.662.16-.929.181-.267.02-.621.03-1.064.03-1.068 0-2.058-.106-2.97-.322Zm11.446-2.825h-1.909v-1.776h1.909v-1.913h1.773v1.913h1.923v1.776h-1.923v1.927h-1.773v-1.927Zm13.833 2.963h-2.464v-2.729h-1.848v2.729h-2.464v-7.714h2.464v2.728h1.848v-2.728h2.464v7.714Zm.862-3.853c0-1.405.263-2.43.788-3.076.525-.648 1.474-.97 2.847-.97s2.322.322 2.847.97c.524.646.787 1.671.787 3.076 0 .699-.056 1.288-.167 1.767a3.25 3.25 0 0 1-.572 1.248c-.27.353-.644.611-1.122.776-.475.164-1.066.246-1.773.246-.707 0-1.298-.082-1.773-.246-.479-.165-.853-.423-1.122-.776a3.25 3.25 0 0 1-.572-1.248c-.112-.479-.168-1.068-.168-1.767Zm2.649-1.282v3.208h1.021c.337 0 .582-.038.735-.115.152-.079.229-.258.229-.537v-3.209h-1.034c-.329 0-.569.039-.722.115-.153.079-.229.258-.229.538Zm7.898 1.396-.15 3.739h-2.574l.467-7.714h3.216l.964 3.923h.083l.964-3.923h3.212l.471 7.714h-2.574l-.15-3.739h-.088l-.933 3.739h-1.887l-.946-3.739h-.075Zm12.503-.965v1.79h-2.464v.938h3.019v1.976h-5.483v-7.714h5.421l-.308 1.975h-2.649v1.035h2.464Zm6.023 4.704h-4.422v-7.714h3.991c.739 0 1.267.144 1.584.432.317.287.475.708.475 1.26 0 .55-.101.975-.303 1.274-.2.303-.468.498-.805.586v.076c.994.173 1.491.851 1.491 2.036 0 .617-.164 1.114-.493 1.49-.328.373-.834.56-1.518.56Zm-.998-3.073h-.96v1.256h.951c.343 0 .515-.208.515-.626 0-.419-.169-.63-.506-.63Zm-.185-2.949h-.775v1.146h.766c.311 0 .466-.19.466-.573 0-.382-.152-.573-.457-.573Zm9.44 3.456 1.329 2.566h-2.71l-1.012-2.297h-.528v2.297h-2.464v-7.714h3.881c1.765 0 2.648.901 2.648 2.702 0 1.234-.381 2.049-1.144 2.446Zm-2.354-3.173h-.567v1.542h.567c.297 0 .512-.031.647-.093.135-.061.203-.203.203-.427v-.502c0-.224-.068-.366-.203-.428-.135-.061-.35-.092-.647-.092Zm9.473 1.035v1.79h-2.464v.938h3.019v1.976h-5.483v-7.714h5.421l-.308 1.975h-2.649v1.035h2.464Zm7.933 1.296.594-4.306h2.574l-1.21 7.714h-3.212l-.568-2.839h-.149l-.555 2.839h-3.216l-1.206-7.714h2.574l.581 4.306h.075l.884-4.306h1.888l.871 4.306h.075Z" style="fill:#fff;white-space:pre"/>
</svg>

<?xml version="1.0" encoding="utf-8"?>
<svg id="svg2" version="1.1" enable-background="new 0 0 566.929 98.574" y="0px" x="0px" viewBox="0 0 264 87" xmlns="http://www.w3.org/2000/svg">
  <g transform="matrix(0.44, 0, 0, 0.440765, 0.000276, -0.000041)">
    <polygon id="_43443024" points="573.944 0.968 600 0.968 563.266 58.114 557.307 102.696 533.76 102.696 540.661 51.826 517.114 0.968 542.544 0.968 555.107 29.858" style="fill: rgb(255, 255, 255);"/>
    <polygon id="_43441624" points="299.546 62.507 330.62 62.507 333.761 39.902 302.997 39.902 305.2 23.573 340.981 23.573 344.442 0.968 285.102 0.968 270.973 102.696 329.995 102.696 333.136 80.082 297.346 80.082" style="fill: rgb(255, 255, 255);"/>
    <path id="_43775888" d="M 118.703 52.454 L 126.553 31.421 L 129.067 52.454 L 118.706 52.454 Z M 110.227 72.548 L 131.574 72.548 L 135.346 102.687 L 173.96 102.687 L 191.858 47.43 L 200.65 102.687 L 221.059 102.687 L 243.664 44.292 L 247.432 102.687 L 270.034 102.687 L 263.755 0.965 L 236.754 0.965 L 215.715 54.65 L 207.551 0.965 L 183.377 0.965 L 155.748 84.478 L 145.387 0.965 L 115.248 0.965 L 81.651 85.417 L 86.047 52.454 L 45.227 52.454 L 42.4 72.545 L 60.298 72.545 L 59.04 79.452 C 55.902 81.334 48.682 81.651 45.855 81.651 C 43.031 81.651 21.995 79.769 22.936 57.161 C 23.871 34.559 54.01 13.522 89.801 25.139 L 93.258 3.475 C 69.395 -4.686 6.725 -0.118 0.322 55.905 C -3.443 88.872 26.699 104.57 46.79 104.259 C 58.406 104.887 71.595 100.491 76.302 97.977 L 74.733 102.687 L 98.596 102.687 L 110.212 72.548 Z" style="fill: rgb(255, 255, 255);"/>
    <path id="_44102912" d="M 491.682 0.029 C 475.356 -0.601 451.807 8.819 443.959 46.808 C 436.111 84.795 457.144 100.18 476.611 102.693 C 496.078 105.204 523.393 92.96 528.414 56.542 C 533.444 20.121 515.536 0.971 491.682 0.029 Z M 489.175 21.693 C 495.768 21.693 509.894 26.089 506.439 52.457 C 502.988 78.83 486.662 81.971 480.697 81.344 C 474.728 80.713 462.485 76.634 465.939 52.457 C 469.4 28.286 482.269 21.376 489.181 21.693 Z" style="fill: rgb(255, 255, 255);"/>
    <path id="_44104296" d="M 392.467 39.902 L 405.655 39.902 C 415.386 39.902 417.272 33.623 417.582 31.113 C 417.896 28.6 415.072 23.576 410.051 23.576 L 394.667 23.576 L 392.476 39.902 Z M 386.816 80.088 L 404.714 80.088 C 414.444 80.088 416.641 72.554 416.955 70.041 C 417.269 67.531 414.444 62.507 409.421 62.507 L 389.329 62.507 L 386.819 80.088 Z M 360.451 102.693 L 374.581 0.971 L 417.905 0.971 C 428.269 0.971 443.337 12.904 441.455 28.913 C 439.572 44.926 434.548 45.87 431.093 48.38 C 436.434 53.087 441.768 60.621 439.572 74.751 C 437.372 88.881 425.756 102.693 405.351 102.693 L 360.454 102.693 Z" style="fill: rgb(255, 255, 255);"/>
    <path id="path12" d="M 123.79 113.833 L 110.469 113.833 L 79.074 166.692 L 116.452 166.692 L 116.452 154.973 L 101.218 154.973 L 116.452 127.649 L 138.535 166.755 L 155.558 166.755 L 155.558 166.631 L 182.14 166.631 C 205.146 166.631 216.681 157.749 216.681 140.173 C 216.681 137.15 216.31 134.314 215.507 131.662 L 236.724 166.634 L 246.901 166.634 L 277.432 113.899 L 261.272 113.899 L 242.209 148.434 L 222.103 113.896 L 204.711 113.896 L 209.521 121.789 C 203.912 116.485 195.829 113.896 185.284 113.896 L 150.311 113.896 L 150.311 157.746 L 123.79 113.833 L 123.79 113.833 Z M 165.361 125.796 L 185.41 125.796 C 195.829 125.796 201.133 130.361 201.133 139.488 C 201.133 144.98 199.471 148.99 196.324 151.084 C 193.3 153.244 187.565 154.291 179.548 154.291 L 165.424 154.291 L 165.424 125.796 L 165.361 125.796 Z" style="fill-opacity: 1; fill: rgb(255, 255, 255);"/>
    <polygon id="polygon14" points="299.944 113.833 286.56 113.833 255.286 166.689 271.078 166.689 271.078 166.565 292.663 166.565 292.663 154.786 277.556 154.786 292.543 127.588 314.623 166.689 331.83 166.689 331.83 166.565 340.589 166.565 340.589 134.679 380.495 166.565 390.856 166.565 390.856 113.833 377.04 113.833 377.04 145.348 336.763 113.833 326.462 113.833 326.462 157.685" style="fill-opacity: 1; fill: rgb(255, 255, 255);"/>
    <path id="path16" d="M 398.752 116.79 C 396.592 118.706 395.484 122.157 395.484 127.094 L 395.484 153.244 C 395.484 158.301 396.592 161.755 398.689 163.668 C 400.725 165.581 404.424 166.568 409.855 166.568 L 440.878 166.568 C 446.246 166.568 450.129 165.581 452.166 163.668 C 454.199 161.758 455.373 158.301 455.373 153.244 L 455.373 145.903 L 440.139 145.659 L 440.139 153.799 L 410.655 153.799 L 410.655 126.107 L 440.139 126.107 L 440.139 133.324 L 455.373 133.324 L 455.373 127.094 C 455.373 121.913 454.202 118.458 452.166 116.79 C 450.129 114.756 446.554 113.77 440.878 113.77 L 409.855 113.77 C 404.488 113.833 400.785 114.759 398.752 116.79 L 398.752 116.79 Z" style="fill-opacity: 1; fill: rgb(255, 255, 255);"/>
    <polygon id="polygon18" points="475.664 133.385 475.664 125.796 516.801 125.796 516.801 113.833 460.43 113.833 460.43 166.565 517.479 166.565 517.479 154.354 475.664 154.354 475.664 144.98 499.78 144.98 499.78 133.385" style="fill-opacity: 1; fill: rgb(255, 255, 255);"/>
  </g>
  <path d="M 83.597 86.816 L 81.133 86.816 L 81.133 84.087 L 79.285 84.087 L 79.285 86.816 L 76.821 86.816 L 76.821 79.102 L 79.285 79.102 L 79.285 81.83 L 81.133 81.83 L 81.133 79.102 L 83.597 79.102 L 83.597 86.816 Z M 86.95 85.594 L 86.664 86.816 L 84.063 86.816 L 86.061 79.102 L 89.867 79.102 L 91.864 86.816 L 89.264 86.816 L 88.982 85.594 L 86.95 85.594 Z M 88.032 81.473 L 87.896 81.473 L 87.39 83.633 L 88.525 83.633 L 88.032 81.473 Z M 97.444 84.607 L 97.629 86.678 C 97.113 86.894 96.465 87 95.684 87 C 94.904 87 94.278 86.918 93.805 86.754 C 93.333 86.589 92.96 86.331 92.688 85.978 C 92.418 85.623 92.229 85.207 92.12 84.73 C 92.014 84.251 91.962 83.662 91.962 82.963 C 91.962 82.264 92.014 81.675 92.12 81.196 C 92.229 80.714 92.418 80.295 92.688 79.94 C 93.213 79.257 94.178 78.917 95.583 78.917 C 95.897 78.917 96.265 78.948 96.687 79.009 C 97.11 79.071 97.424 79.147 97.629 79.238 L 97.259 81.125 C 96.726 81.011 96.237 80.953 95.794 80.953 C 95.351 80.953 95.043 80.995 94.87 81.077 C 94.697 81.159 94.61 81.323 94.61 81.571 L 94.61 84.805 C 94.93 84.87 95.255 84.902 95.583 84.902 C 96.281 84.902 96.902 84.804 97.444 84.607 Z M 101.004 83.457 L 100.955 83.457 L 100.955 86.816 L 98.491 86.816 L 98.491 79.102 L 100.955 79.102 L 100.955 82.249 L 101.004 82.249 C 101.021 82.002 101.062 81.805 101.127 81.659 L 102.337 79.102 L 104.994 79.102 L 103.146 82.893 L 105.056 86.816 L 102.398 86.816 L 101.127 84.052 C 101.062 83.902 101.021 83.703 101.004 83.457 Z M 105.489 86.678 L 105.832 84.642 C 106.589 84.833 107.269 84.928 107.873 84.928 C 108.478 84.928 108.965 84.903 109.334 84.854 L 109.334 84.237 L 108.225 84.135 C 107.222 84.047 106.534 83.808 106.162 83.417 C 105.786 83.026 105.599 82.447 105.599 81.681 C 105.599 80.628 105.827 79.904 106.285 79.507 C 106.74 79.114 107.513 78.917 108.604 78.917 C 109.698 78.917 110.684 79.019 111.561 79.225 L 111.253 81.2 C 110.49 81.077 109.878 81.015 109.418 81.015 C 108.957 81.015 108.567 81.036 108.247 81.077 L 108.247 81.681 L 109.136 81.769 C 110.213 81.874 110.956 82.131 111.367 82.54 C 111.778 82.945 111.983 83.511 111.983 84.237 C 111.983 84.754 111.913 85.192 111.772 85.55 C 111.631 85.909 111.465 86.181 111.275 86.366 C 111.081 86.551 110.807 86.691 110.452 86.789 C 110.1 86.889 109.79 86.949 109.523 86.97 C 109.256 86.99 108.902 87 108.459 87 C 107.391 87 106.401 86.894 105.489 86.678 Z M 116.935 83.853 L 115.026 83.853 L 115.026 82.077 L 116.935 82.077 L 116.935 80.164 L 118.708 80.164 L 118.708 82.077 L 120.631 82.077 L 120.631 83.853 L 118.708 83.853 L 118.708 85.78 L 116.935 85.78 L 116.935 83.853 Z M 130.768 86.816 L 128.304 86.816 L 128.304 84.087 L 126.456 84.087 L 126.456 86.816 L 123.992 86.816 L 123.992 79.102 L 126.456 79.102 L 126.456 81.83 L 128.304 81.83 L 128.304 79.102 L 130.768 79.102 L 130.768 86.816 Z M 131.63 82.963 C 131.63 81.558 131.893 80.533 132.418 79.887 C 132.943 79.239 133.892 78.917 135.265 78.917 C 136.638 78.917 137.587 79.239 138.112 79.887 C 138.636 80.533 138.899 81.558 138.899 82.963 C 138.899 83.662 138.843 84.251 138.732 84.73 C 138.621 85.207 138.43 85.623 138.16 85.978 C 137.89 86.331 137.516 86.589 137.038 86.754 C 136.563 86.918 135.972 87 135.265 87 C 134.558 87 133.967 86.918 133.492 86.754 C 133.013 86.589 132.639 86.331 132.37 85.978 C 132.1 85.623 131.909 85.207 131.798 84.73 C 131.686 84.251 131.63 83.662 131.63 82.963 Z M 134.279 81.681 L 134.279 84.889 L 135.3 84.889 C 135.637 84.889 135.882 84.851 136.035 84.774 C 136.187 84.695 136.264 84.516 136.264 84.237 L 136.264 81.028 L 135.23 81.028 C 134.901 81.028 134.661 81.067 134.508 81.143 C 134.355 81.222 134.279 81.401 134.279 81.681 Z M 142.177 83.077 L 142.027 86.816 L 139.453 86.816 L 139.92 79.102 L 143.136 79.102 L 144.1 83.025 L 144.183 83.025 L 145.147 79.102 L 148.359 79.102 L 148.83 86.816 L 146.256 86.816 L 146.106 83.077 L 146.018 83.077 L 145.085 86.816 L 143.198 86.816 L 142.252 83.077 L 142.177 83.077 Z M 154.68 82.112 L 154.68 83.902 L 152.216 83.902 L 152.216 84.84 L 155.235 84.84 L 155.235 86.816 L 149.752 86.816 L 149.752 79.102 L 155.173 79.102 L 154.865 81.077 L 152.216 81.077 L 152.216 82.112 L 154.68 82.112 Z M 160.703 86.816 L 156.281 86.816 L 156.281 79.102 L 160.272 79.102 C 161.011 79.102 161.539 79.246 161.856 79.534 C 162.173 79.821 162.331 80.242 162.331 80.794 C 162.331 81.344 162.23 81.769 162.028 82.068 C 161.828 82.371 161.56 82.566 161.223 82.654 L 161.223 82.73 C 162.217 82.903 162.714 83.581 162.714 84.766 C 162.714 85.383 162.55 85.88 162.221 86.256 C 161.893 86.629 161.387 86.816 160.703 86.816 Z M 159.705 83.743 L 158.745 83.743 L 158.745 84.999 L 159.696 84.999 C 160.039 84.999 160.211 84.791 160.211 84.373 C 160.211 83.954 160.042 83.743 159.705 83.743 Z M 159.52 80.794 L 158.745 80.794 L 158.745 81.94 L 159.511 81.94 C 159.822 81.94 159.977 81.75 159.977 81.367 C 159.977 80.985 159.825 80.794 159.52 80.794 Z M 168.96 84.25 L 170.289 86.816 L 167.579 86.816 L 166.567 84.519 L 166.039 84.519 L 166.039 86.816 L 163.575 86.816 L 163.575 79.102 L 167.456 79.102 C 169.221 79.102 170.104 80.003 170.104 81.804 C 170.104 83.038 169.723 83.853 168.96 84.25 Z M 166.606 81.077 L 166.039 81.077 L 166.039 82.619 L 166.606 82.619 C 166.903 82.619 167.118 82.588 167.253 82.526 C 167.388 82.465 167.456 82.323 167.456 82.099 L 167.456 81.597 C 167.456 81.373 167.388 81.231 167.253 81.169 C 167.118 81.108 166.903 81.077 166.606 81.077 Z M 176.079 82.112 L 176.079 83.902 L 173.615 83.902 L 173.615 84.84 L 176.634 84.84 L 176.634 86.816 L 171.151 86.816 L 171.151 79.102 L 176.572 79.102 L 176.264 81.077 L 173.615 81.077 L 173.615 82.112 L 176.079 82.112 Z M 184.012 83.408 L 184.606 79.102 L 187.18 79.102 L 185.97 86.816 L 182.758 86.816 L 182.19 83.977 L 182.041 83.977 L 181.486 86.816 L 178.27 86.816 L 177.064 79.102 L 179.638 79.102 L 180.219 83.408 L 180.294 83.408 L 181.178 79.102 L 183.066 79.102 L 183.937 83.408 L 184.012 83.408 Z" style="fill: rgb(255, 255, 255); white-space: pre;"/>
</svg>
